X:201
T: HOLDE NACHT DEIN DUNKLER SCHLEIER
N: E1342
O: Europa, Mitteleuropa, Deutschland, Bergisches Land
R: Staende -, Soldaten -, Kriegs - Lied
M: 4/4
L: 1/8
K: G
DD | G3GGGAG | GFF2z2
DD | G3GGBdB | B2A2z2
DD | c3cccdc | cBB2z2
GF | E3cdcBA | A2G2z2

@@@ Tune index: 4885
